img/icons/reports.svg

<svg width="20" height="20" viewBox="0 0 20 20" fill="none" xmlns="http://www.w3.org/2000/svg">
<path d="M15.2652 17.1783C15.6398 17.5841 16.2725 17.6094 16.6783 17.2348C17.0841 16.8602 17.1094 16.2275 16.7348 15.8217L15.2652 17.1783ZM10 10H9C9 10.2514 9.09468 10.4936 9.2652 10.6783L10 10ZM10 18C5.58172 18 2 14.4183 2 10H0C0 15.5228 4.47715 20 10 20V18ZM2 10C2 5.58172 5.58172 2 10 2V0C4.47715 0 0 4.47715 0 10H2ZM10 2C14.4183 2 18 5.58172 18 10H20C20 4.47715 15.5228 0 10 0V2ZM18 10C18 14.4183 14.4183 18 10 18V20C15.5228 20 20 15.5228 20 10H18ZM16.7348 15.8217L10.7348 9.32172L9.2652 10.6783L15.2652 17.1783L16.7348 15.8217ZM11 10V1H9V10H11ZM10 11H19V9H10V11Z" fill="#8C8D92"/>
</svg>

<svg width="20" height="20" fill="none" xmlns="http://www.w3.org/2000/svg"><path d="M15.265 17.178a1 1 0 0 0 1.47-1.356l-1.47 1.356ZM10 10H9a1 1 0 0 0 .265.678L10 10Zm0 8a8 8 0 0 1-8-8H0c0 5.523 4.477 10 10 10v-2Zm-8-8a8 8 0 0 1 8-8V0C4.477 0 0 4.477 0 10h2Zm8-8a8 8 0 0 1 8 8h2c0-5.523-4.477-10-10-10v2Zm8 8a8 8 0 0 1-8 8v2c5.523 0 10-4.477 10-10h-2Zm-1.265 5.822-6-6.5-1.47 1.356 6 6.5 1.47-1.356ZM11 10V1H9v9h2Zm-1 1h9V9h-9v2Z" fill="#8C8D92"/></svg>
